icons/binoculars-two-color.svg

<?xml version="1.0" encoding="UTF-8"?><svg xmlns="http://www.w3.org/2000/svg" viewBox="0 0 50 50"><g id="uuid-99717b44-00ec-4c59-bed2-3d8ab7c05290"><g><path d="M48.02,39.49h-.67l-.63-6.14h1.46c-.72-5.54-1.43-11.08-2.15-16.62h-1.74l-.73-6.16h-2.49v-3.32h-6.87v3.32h-3.29v6.16h-9.43v-6.16h-3.25v-3.32h-6.87v3.32h-2.45l-.73,6.16h-1.74c-.72,5.54-1.43,11.08-2.15,16.62h1.46l-.69,6.14H3.01v5.76H23.18v-5.76h-1.98v-6.14h9.72v6.14h-1.79v5.76h20.18v-5.76h-1.29Zm-23.27-12.64c-1.79,0-3.24-1.45-3.24-3.24s1.45-3.24,3.24-3.24,3.24,1.45,3.24,3.24-1.45,3.24-3.24,3.24Z" fill="#ffcd00"/><g><path d="M24.94,19.36c-2.34,0-4.24,1.9-4.24,4.24s1.9,4.24,4.24,4.24,4.24-1.9,4.24-4.24-1.9-4.24-4.24-4.24Zm0,7.48c-1.79,0-3.24-1.45-3.24-3.24s1.45-3.24,3.24-3.24,3.24,1.45,3.24,3.24-1.45,3.24-3.24,3.24Z"/><path d="M48.49,37.8h-1.36l-.73-5.33h1.03c.14,0,.28-.06,.38-.17,.09-.11,.14-.25,.12-.4l-2.28-16.74c-.03-.25-.25-.43-.5-.43h-1.16l-.8-5.9c-.03-.25-.25-.43-.5-.43h-1.92v-3.16c0-.28-.22-.5-.5-.5h-7.87c-.28,0-.5,.22-.5,.5v3.16h-2.79c-.28,0-.5,.22-.5,.5v5.83h-7.43v-5.83c0-.28-.22-.5-.5-.5h-2.75v-3.16c0-.28-.22-.5-.5-.5h-7.87c-.28,0-.5,.22-.5,.5v3.16h-1.88c-.25,0-.46,.18-.5,.43l-.81,5.9h-1.16c-.25,0-.46,.18-.5,.43L1.94,31.91c-.02,.14,.02,.29,.12,.4,.09,.11,.23,.17,.38,.17h1.03l-.73,5.33H1.19c-.28,0-.5,.22-.5,.5v5.95c0,.28,.22,.5,.5,.5H22.37c.28,0,.5-.22,.5-.5v-5.95c0-.28-.22-.5-.5-.5h-1.48v-5.33h7.72v5.33h-1.29c-.28,0-.5,.22-.5,.5v5.95c0,.28,.22,.5,.5,.5h21.18c.28,0,.5-.22,.5-.5v-5.95c0-.28-.22-.5-.5-.5Zm-.5,5.95H27.82v-4.95h20.18v4.95ZM6.32,15.73H44.72l2.15,15.74H3.01l2.15-15.74h1.16ZM32.9,5.75h6.87v2.66h-6.87v-2.66Zm-3.29,3.66h12.64l.73,5.33h-13.37v-5.33ZM10.07,5.75h6.87v2.66h-6.87v-2.66Zm-2.45,3.66h12.56v5.33H6.89l.73-5.33Zm14.25,34.35H1.69v-4.95H21.87v4.95Zm-1.98-5.95H3.74l.73-5.33h15.42v5.33Zm9.72-5.33h15.79l.73,5.33H29.61v-5.33Z"/></g></g></g><g id="uuid-b23941f0-b701-49e2-854b-d100413a1ac1"><text transform="translate(.39 54.96)" font-family="Roboto-Regular, Roboto" font-size="6"><tspan x="0" y="0">binoculars</tspan></text></g></svg>

<svg xmlns="http://www.w3.org/2000/svg" viewBox="0 0 50 50"><g id="fa62f5c4-d060-46e0-9351-daa2f317f485" data-name="ICONS"><path d="M48,39.49h-.67l-.63-6.14h1.46Q47.11,25,46,16.73H44.3l-.73-6.16H41.08V7.25H34.21v3.32H30.93v6.16H21.5V10.57H18.25V7.25H11.38v3.32H8.94l-.73,6.16H6.47Q5.4,25,4.32,33.35H5.79L5.1,39.49H3v5.76H23.18V39.49h-2V33.35h9.73v6.14h-1.8v5.76H49.31V39.49ZM24.75,26.85A3.25,3.25,0,1,1,28,23.6,3.25,3.25,0,0,1,24.75,26.85Z" fill="#fdd600"/><path d="M24.94,19.36a4.25,4.25,0,1,0,4.24,4.24A4.26,4.26,0,0,0,24.94,19.36Zm0,7.49a3.25,3.25,0,1,1,3.24-3.25A3.26,3.26,0,0,1,24.94,26.85Z" fill="#231f20"/><path d="M48.49,37.8H47.14l-.73-5.33h1a.48.48,0,0,0,.37-.17.47.47,0,0,0,.12-.39L45.65,15.17a.51.51,0,0,0-.5-.44H44l-.81-5.89a.5.5,0,0,0-.49-.44H40.76V5.25a.5.5,0,0,0-.5-.5H32.4a.5.5,0,0,0-.5.5V8.4H29.11a.5.5,0,0,0-.5.5v5.83H21.18V8.9a.5.5,0,0,0-.5-.5H17.93V5.25a.5.5,0,0,0-.5-.5H9.57a.5.5,0,0,0-.5.5V8.4H7.18a.5.5,0,0,0-.49.44l-.81,5.89H4.72a.51.51,0,0,0-.5.44L1.94,31.91a.47.47,0,0,0,.12.39.48.48,0,0,0,.37.17h1L2.73,37.8H1.19a.5.5,0,0,0-.5.5v6a.5.5,0,0,0,.5.5H22.37a.5.5,0,0,0,.5-.5v-6a.51.51,0,0,0-.5-.5H20.89V32.47h7.72V37.8H27.32a.5.5,0,0,0-.5.5v6a.5.5,0,0,0,.5.5H48.49a.5.5,0,0,0,.5-.5v-6A.5.5,0,0,0,48.49,37.8Zm-.5,6H27.82v-5H48Zm-41.67-28h38.4l2.14,15.74H3L5.15,15.73Zm26.58-10h6.86V8.4H32.9ZM29.61,9.4H42.25L43,14.73H29.61ZM10.07,5.75h6.86V8.4H10.07ZM7.62,9.4H20.18v5.33H6.89ZM21.87,43.75H1.69v-5H21.87Zm-2-6H3.74l.73-5.33H19.89Zm9.72-5.33H45.4l.73,5.33H29.61Z" fill="#231f20"/></g><g id="b2ecae7d-bd6c-45d1-b6a9-8487ef03b2c9" data-name="LABELS"><text transform="translate(0.39 54.96)" font-size="6" fill="#231f20" font-family="Roboto-Regular, Roboto">binoculars</text></g></svg>
